X: 46
T: Slapen Waltz
O: Scandinavia
M: 3/4
L: 1/8
Q: 1/4=160
K: G
  D2     |:B4(3cBA|G2B2G2|A2c2F2   |[1G2B2D2 :|[2G4D2|
|:B4(3cBA|G2B2G2  |A2c2F2|[1G2B2D2 :|[2G4B2  |
|:c2edeA |B2dcdG  |A2cBcF|[1G2B2B2 :|[2G6    |
|:c2edeA |B2dcdG  |A2cBcF|[1G2B2B2 :|[2G6    |
